resources/motor_order/quad_p.svg

<?xml version="1.0" encoding="UTF-8" standalone="no"?>
<!-- Public domain (CC-BY-SA if you or your laws insist), generated by Jonathan Hudson's svg_model_motors.rb -->

<svg
   width="200pt"
   height="200pt"
   viewBox="0 0 200 200"
   version="1.1"
   id="svg52"
   sodipodi:docname="quad_p.svg"
   inkscape:version="1.1.2 (0a00cf5339, 2022-02-04)"
   xmlns:inkscape="http://www.inkscape.org/namespaces/inkscape"
   xmlns:sodipodi="http://sodipodi.sourceforge.net/DTD/sodipodi-0.dtd"
   xmlns="http://www.w3.org/2000/svg"
   xmlns:svg="http://www.w3.org/2000/svg">
  <sodipodi:namedview
     id="namedview54"
     pagecolor="#ffffff"
     bordercolor="#666666"
     borderopacity="1.0"
     inkscape:pageshadow="2"
     inkscape:pageopacity="0.0"
     inkscape:pagecheckerboard="0"
     inkscape:document-units="pt"
     showgrid="false"
     inkscape:zoom="3.165"
     inkscape:cx="133.17536"
     inkscape:cy="158.60979"
     inkscape:window-width="1920"
     inkscape:window-height="1043"
     inkscape:window-x="0"
     inkscape:window-y="0"
     inkscape:window-maximized="1"
     inkscape:current-layer="surface16" />
  <defs
     id="defs19">
    <g
       id="g17">
      <symbol
         overflow="visible"
         id="glyph0-0">
        <path
           style="stroke:none;"
           d=""
           id="path2" />
      </symbol>
      <symbol
         overflow="visible"
         id="glyph0-1">
        <path
           style="stroke:none;"
           d="M 2.679688 -13.863281 L 2.679688 -15.75 C 4.457031 -15.921875 5.695312 -16.210938 6.398438 -16.617188 C 7.101562 -17.023438 7.625 -17.984375 7.96875 -19.496094 L 9.914062 -19.496094 L 9.914062 0 L 7.289062 0 L 7.289062 -13.863281 Z M 2.679688 -13.863281 "
           id="path5" />
      </symbol>
      <symbol
         overflow="visible"
         id="glyph0-2">
        <path
           style="stroke:none;"
           d="M 1.921875 -4.402344 C 2.527344 -5.652344 3.710938 -6.785156 5.46875 -7.804688 L 8.09375 -9.324219 C 9.269531 -10.007812 10.09375 -10.589844 10.570312 -11.074219 C 11.316406 -11.832031 11.6875 -12.695312 11.6875 -13.671875 C 11.6875 -14.8125 11.347656 -15.714844 10.664062 -16.386719 C 9.980469 -17.054688 9.070312 -17.390625 7.929688 -17.390625 C 6.242188 -17.390625 5.078125 -16.753906 4.429688 -15.476562 C 4.082031 -14.792969 3.890625 -13.84375 3.855469 -12.632812 L 1.351562 -12.632812 C 1.378906 -14.335938 1.695312 -15.726562 2.296875 -16.804688 C 3.363281 -18.699219 5.246094 -19.648438 7.945312 -19.648438 C 10.1875 -19.648438 11.824219 -19.039062 12.859375 -17.828125 C 13.894531 -16.617188 14.410156 -15.265625 14.410156 -13.78125 C 14.410156 -12.214844 13.859375 -10.875 12.757812 -9.761719 C 12.117188 -9.113281 10.972656 -8.332031 9.324219 -7.410156 L 7.453125 -6.371094 C 6.558594 -5.878906 5.855469 -5.410156 5.34375 -4.960938 C 4.433594 -4.167969 3.859375 -3.289062 3.625 -2.324219 L 14.3125 -2.324219 L 14.3125 0 L 0.875 0 C 0.964844 -1.6875 1.316406 -3.152344 1.921875 -4.402344 Z M 1.921875 -4.402344 "
           id="path8" />
      </symbol>
      <symbol
         overflow="visible"
         id="glyph0-3">
        <path
           style="stroke:none;"
           d="M 9.257812 -6.929688 L 9.257812 -15.804688 L 2.980469 -6.929688 Z M 9.296875 0 L 9.296875 -4.785156 L 0.710938 -4.785156 L 0.710938 -7.191406 L 9.679688 -19.632812 L 11.757812 -19.632812 L 11.757812 -6.929688 L 14.640625 -6.929688 L 14.640625 -4.785156 L 11.757812 -4.785156 L 11.757812 0 Z M 9.296875 0 "
           id="path11" />
      </symbol>
      <symbol
         overflow="visible"
         id="glyph0-4">
        <path
           style="stroke:none;"
           d="M 2.234375 -1.375 C 1.191406 -2.644531 0.671875 -4.191406 0.671875 -6.015625 L 3.242188 -6.015625 C 3.351562 -4.75 3.585938 -3.828125 3.953125 -3.253906 C 4.589844 -2.222656 5.742188 -1.710938 7.410156 -1.710938 C 8.703125 -1.710938 9.742188 -2.054688 10.527344 -2.75 C 11.3125 -3.441406 11.703125 -4.335938 11.703125 -5.429688 C 11.703125 -6.777344 11.289062 -7.71875 10.464844 -8.257812 C 9.640625 -8.796875 8.496094 -9.0625 7.027344 -9.0625 C 6.863281 -9.0625 6.695312 -9.0625 6.527344 -9.058594 C 6.359375 -9.054688 6.1875 -9.046875 6.015625 -9.039062 L 6.015625 -11.210938 C 6.269531 -11.183594 6.484375 -11.164062 6.65625 -11.15625 C 6.832031 -11.148438 7.019531 -11.140625 7.21875 -11.140625 C 8.140625 -11.140625 8.894531 -11.289062 9.488281 -11.578125 C 10.527344 -12.089844 11.046875 -13 11.046875 -14.3125 C 11.046875 -15.289062 10.699219 -16.042969 10.007812 -16.570312 C 9.316406 -17.097656 8.507812 -17.363281 7.585938 -17.363281 C 5.945312 -17.363281 4.8125 -16.816406 4.183594 -15.722656 C 3.835938 -15.121094 3.640625 -14.265625 3.59375 -13.152344 L 1.164062 -13.152344 C 1.164062 -14.609375 1.453125 -15.851562 2.039062 -16.871094 C 3.039062 -18.695312 4.804688 -19.605469 7.328125 -19.605469 C 9.324219 -19.605469 10.867188 -19.160156 11.960938 -18.273438 C 13.054688 -17.382812 13.601562 -16.097656 13.601562 -14.410156 C 13.601562 -13.207031 13.28125 -12.230469 12.632812 -11.484375 C 12.230469 -11.019531 11.710938 -10.65625 11.074219 -10.390625 C 12.105469 -10.109375 12.910156 -9.5625 13.488281 -8.757812 C 14.066406 -7.949219 14.355469 -6.964844 14.355469 -5.796875 C 14.355469 -3.929688 13.742188 -2.40625 12.507812 -1.230469 C 11.277344 -0.0546875 9.535156 0.53125 7.273438 0.53125 C 4.957031 0.53125 3.277344 -0.101562 2.234375 -1.375 Z M 2.234375 -1.375 "
           id="path14" />
      </symbol>
    </g>
  </defs>
  <g
     id="surface16">
    <path
       style="fill:none;stroke:#b8b8b8;stroke-width:28;stroke-linecap:round;stroke-linejoin:round;stroke-miterlimit:10;stroke-opacity:1"
       d="M 40,100 H 160 M 100,40 v 120"
       id="path21" />
    <path
       style="fill:none;stroke:#37a8db;stroke-width:3;stroke-linecap:butt;stroke-linejoin:miter;stroke-miterlimit:10;stroke-opacity:1"
       d="m 128,160 c 0,15.46484 -12.53516,28 -28,28 -15.464844,0 -28,-12.53516 -28,-28 0,-15.46484 12.535156,-28 28,-28 15.46484,0 28,12.53516 28,28 m -47.800781,19.80078 v 16.80078 m 0,-16.80078 L 97,177.78516"
       id="path23" />
    <path
       style="fill:none;stroke:#37a8db;stroke-width:3;stroke-linecap:butt;stroke-linejoin:miter;stroke-miterlimit:10;stroke-opacity:1"
       d="m 188,100 c 0,15.46484 -12.53516,28 -28,28 -15.46484,0 -28,-12.53516 -28,-28 0,-15.464844 12.53516,-28 28,-28 15.46484,0 28,12.535156 28,28 M 179.80078,80.199219 177.78516,97 m 2.01562,-16.800781 h 16.80078"
       id="path29" />
    <path
       style="fill:none;stroke:#37a8db;stroke-width:3;stroke-linecap:butt;stroke-linejoin:miter;stroke-miterlimit:10;stroke-opacity:1"
       d="M 128,40 C 128,55.464844 115.46484,68 100,68 84.535156,68 72,55.464844 72,40 72,24.535156 84.535156,12 100,12 c 15.46484,0 28,12.535156 28,28 M 119.80078,20.199219 V 3.398438 m 0,16.800781 L 103,22.214844"
       id="path35" />
    <path
       style="fill:none;stroke:#37a8db;stroke-width:3;stroke-linecap:butt;stroke-linejoin:miter;stroke-miterlimit:10;stroke-opacity:1"
       d="m 68,100 c 0,15.46484 -12.535156,28 -28,28 -15.464844,0 -28,-12.53516 -28,-28 0,-15.464844 12.535156,-28 28,-28 15.464844,0 28,12.535156 28,28 M 20.199219,119.80078 22.214844,103 m -2.015625,16.80078 H 3.398438"
       id="path41" />
    <path
       style="fill:none;stroke:#fa0500;stroke-width:12;stroke-linecap:butt;stroke-linejoin:bevel;stroke-miterlimit:10;stroke-opacity:1"
       d="m 100,80 v 40"
       id="path47" />
    <path
       style="fill:#fa0500;fill-opacity:1;fill-rule:nonzero;stroke:none"
       d="M 100,75 85,90 h 30 L 100,75"
       id="path49" />
  </g>
</svg>

<?xml version="1.0" encoding="UTF-8"?>
<!-- Public domain (CC-BY-SA if you or your laws insist), generated by Jonathan Hudson's svg_model_motors.rb -->
<svg xmlns="http://www.w3.org/2000/svg" xmlns:xlink="http://www.w3.org/1999/xlink" width="200pt" height="200pt" viewBox="0 0 200 200" version="1.1">
<defs>
<g>
<symbol overflow="visible" id="glyph0-0">
<path style="stroke:none;" d=""/>
</symbol>
<symbol overflow="visible" id="glyph0-1">
<path style="stroke:none;" d="M 2.679688 -13.863281 L 2.679688 -15.75 C 4.457031 -15.921875 5.695312 -16.210938 6.398438 -16.617188 C 7.101562 -17.023438 7.625 -17.984375 7.96875 -19.496094 L 9.914062 -19.496094 L 9.914062 0 L 7.289062 0 L 7.289062 -13.863281 Z M 2.679688 -13.863281 "/>
</symbol>
<symbol overflow="visible" id="glyph0-2">
<path style="stroke:none;" d="M 1.921875 -4.402344 C 2.527344 -5.652344 3.710938 -6.785156 5.46875 -7.804688 L 8.09375 -9.324219 C 9.269531 -10.007812 10.09375 -10.589844 10.570312 -11.074219 C 11.316406 -11.832031 11.6875 -12.695312 11.6875 -13.671875 C 11.6875 -14.8125 11.347656 -15.714844 10.664062 -16.386719 C 9.980469 -17.054688 9.070312 -17.390625 7.929688 -17.390625 C 6.242188 -17.390625 5.078125 -16.753906 4.429688 -15.476562 C 4.082031 -14.792969 3.890625 -13.84375 3.855469 -12.632812 L 1.351562 -12.632812 C 1.378906 -14.335938 1.695312 -15.726562 2.296875 -16.804688 C 3.363281 -18.699219 5.246094 -19.648438 7.945312 -19.648438 C 10.1875 -19.648438 11.824219 -19.039062 12.859375 -17.828125 C 13.894531 -16.617188 14.410156 -15.265625 14.410156 -13.78125 C 14.410156 -12.214844 13.859375 -10.875 12.757812 -9.761719 C 12.117188 -9.113281 10.972656 -8.332031 9.324219 -7.410156 L 7.453125 -6.371094 C 6.558594 -5.878906 5.855469 -5.410156 5.34375 -4.960938 C 4.433594 -4.167969 3.859375 -3.289062 3.625 -2.324219 L 14.3125 -2.324219 L 14.3125 0 L 0.875 0 C 0.964844 -1.6875 1.316406 -3.152344 1.921875 -4.402344 Z M 1.921875 -4.402344 "/>
</symbol>
<symbol overflow="visible" id="glyph0-3">
<path style="stroke:none;" d="M 9.257812 -6.929688 L 9.257812 -15.804688 L 2.980469 -6.929688 Z M 9.296875 0 L 9.296875 -4.785156 L 0.710938 -4.785156 L 0.710938 -7.191406 L 9.679688 -19.632812 L 11.757812 -19.632812 L 11.757812 -6.929688 L 14.640625 -6.929688 L 14.640625 -4.785156 L 11.757812 -4.785156 L 11.757812 0 Z M 9.296875 0 "/>
</symbol>
<symbol overflow="visible" id="glyph0-4">
<path style="stroke:none;" d="M 2.234375 -1.375 C 1.191406 -2.644531 0.671875 -4.191406 0.671875 -6.015625 L 3.242188 -6.015625 C 3.351562 -4.75 3.585938 -3.828125 3.953125 -3.253906 C 4.589844 -2.222656 5.742188 -1.710938 7.410156 -1.710938 C 8.703125 -1.710938 9.742188 -2.054688 10.527344 -2.75 C 11.3125 -3.441406 11.703125 -4.335938 11.703125 -5.429688 C 11.703125 -6.777344 11.289062 -7.71875 10.464844 -8.257812 C 9.640625 -8.796875 8.496094 -9.0625 7.027344 -9.0625 C 6.863281 -9.0625 6.695312 -9.0625 6.527344 -9.058594 C 6.359375 -9.054688 6.1875 -9.046875 6.015625 -9.039062 L 6.015625 -11.210938 C 6.269531 -11.183594 6.484375 -11.164062 6.65625 -11.15625 C 6.832031 -11.148438 7.019531 -11.140625 7.21875 -11.140625 C 8.140625 -11.140625 8.894531 -11.289062 9.488281 -11.578125 C 10.527344 -12.089844 11.046875 -13 11.046875 -14.3125 C 11.046875 -15.289062 10.699219 -16.042969 10.007812 -16.570312 C 9.316406 -17.097656 8.507812 -17.363281 7.585938 -17.363281 C 5.945312 -17.363281 4.8125 -16.816406 4.183594 -15.722656 C 3.835938 -15.121094 3.640625 -14.265625 3.59375 -13.152344 L 1.164062 -13.152344 C 1.164062 -14.609375 1.453125 -15.851562 2.039062 -16.871094 C 3.039062 -18.695312 4.804688 -19.605469 7.328125 -19.605469 C 9.324219 -19.605469 10.867188 -19.160156 11.960938 -18.273438 C 13.054688 -17.382812 13.601562 -16.097656 13.601562 -14.410156 C 13.601562 -13.207031 13.28125 -12.230469 12.632812 -11.484375 C 12.230469 -11.019531 11.710938 -10.65625 11.074219 -10.390625 C 12.105469 -10.109375 12.910156 -9.5625 13.488281 -8.757812 C 14.066406 -7.949219 14.355469 -6.964844 14.355469 -5.796875 C 14.355469 -3.929688 13.742188 -2.40625 12.507812 -1.230469 C 11.277344 -0.0546875 9.535156 0.53125 7.273438 0.53125 C 4.957031 0.53125 3.277344 -0.101562 2.234375 -1.375 Z M 2.234375 -1.375 "/>
</symbol>
</g>
</defs>
<g id="surface16">
<path style="fill:none;stroke-width:28;stroke-linecap:round;stroke-linejoin:round;stroke:rgb(72.941176%,72.941176%,72.941176%);stroke-opacity:1;stroke-miterlimit:10;" d="M 40 100 L 160 100 M 100 40 L 100 160 "/>
<path style="fill:none;stroke-width:3;stroke-linecap:butt;stroke-linejoin:miter;stroke:rgb(55,168,219);stroke-opacity:1;stroke-miterlimit:10;" d="M 128 160 C 128 175.464844 115.464844 188 100 188 C 84.535156 188 72 175.464844 72 160 C 72 144.535156 84.535156 132 100 132 C 115.464844 132 128 144.535156 128 160 M 80.199219 179.800781 L 80.199219 196.601562 M 80.199219 179.800781 L 97 177.785156 "/>
<g style="fill:rgb(0%,0%,0%);fill-opacity:1;">
  <use xlink:href="#glyph0-1" x="93" y="167"/>
</g>
<path style="fill:none;stroke-width:3;stroke-linecap:butt;stroke-linejoin:miter;stroke:rgb(55,168,219);stroke-opacity:1;stroke-miterlimit:10;" d="M 188 100 C 188 115.464844 175.464844 128 160 128 C 144.535156 128 132 115.464844 132 100 C 132 84.535156 144.535156 72 160 72 C 175.464844 72 188 84.535156 188 100 M 179.800781 80.199219 L 177.785156 97 M 179.800781 80.199219 L 196.601562 80.199219 "/>
<g style="fill:rgb(0%,0%,0%);fill-opacity:1;">
  <use xlink:href="#glyph0-2" x="153" y="107"/>
</g>
<path style="fill:none;stroke-width:3;stroke-linecap:butt;stroke-linejoin:miter;stroke:rgb(55,168,219);stroke-opacity:1;stroke-miterlimit:10;" d="M 128 40 C 128 55.464844 115.464844 68 100 68 C 84.535156 68 72 55.464844 72 40 C 72 24.535156 84.535156 12 100 12 C 115.464844 12 128 24.535156 128 40 M 119.800781 20.199219 L 119.800781 3.398438 M 119.800781 20.199219 L 103 22.214844 "/>
<g style="fill:rgb(0%,0%,0%);fill-opacity:1;">
  <use xlink:href="#glyph0-3" x="93" y="47"/>
</g>
<path style="fill:none;stroke-width:3;stroke-linecap:butt;stroke-linejoin:miter;stroke:rgb(55,168,219);stroke-opacity:1;stroke-miterlimit:10;" d="M 68 100 C 68 115.464844 55.464844 128 40 128 C 24.535156 128 12 115.464844 12 100 C 12 84.535156 24.535156 72 40 72 C 55.464844 72 68 84.535156 68 100 M 20.199219 119.800781 L 22.214844 103 M 20.199219 119.800781 L 3.398438 119.800781 "/>
<g style="fill:rgb(0%,0%,0%);fill-opacity:1;">
  <use xlink:href="#glyph0-4" x="33" y="107"/>
</g>
<path style="fill:none;stroke-width:12;stroke-linecap:butt;stroke-linejoin:bevel;stroke:rgb(98.039216%,2.745098%,0%);stroke-opacity:1;stroke-miterlimit:10;" d="M 100 80 L 100 120 "/>
<path style=" stroke:none;fill-rule:nonzero;fill:rgb(98.039216%,2.745098%,0%);fill-opacity:1;" d="M 100 75 L 85 90 L 115 90 L 100 75 "/>
</g>
</svg>
